battery-charging-20.svg

<svg fill="currentColor" viewBox="0 0 24 24"><path d="M23.05 11h-3V4l-5 10h3v8m-6-5h-8V6h8m.67-2h-1.67V2h-6v2H3.38a1.33 1.33 0 0 0-1.33 1.33v15.34c0 .73.6 1.33 1.33 1.33h9.34c.73 0 1.33-.6 1.33-1.33V5.33A1.33 1.33 0 0 0 12.72 4"/></svg>

<svg  viewBox="0 0 24 24" fill="currentColor"><path  d="M23.05,11H20.05V4L15.05,14H18.05V22M12.05,17H4.05V6H12.05M12.72,4H11.05V2H5.05V4H3.38A1.33,1.33 0 0,0 2.05,5.33V20.67C2.05,21.4 2.65,22 3.38,22H12.72C13.45,22 14.05,21.4 14.05,20.67V5.33A1.33,1.33 0 0,0 12.72,4Z"/></svg>
